tools/download-figma-icons/icons/action/infothek.svg

<svg width="24" height="24" viewBox="0 0 24 24" fill="none" xmlns="http://www.w3.org/2000/svg">
<path d="M11.9861 24C9.77723 24.0007 7.61102 23.3916 5.72611 22.24L1.98611 23.23C1.81568 23.277 1.63582 23.2781 1.46487 23.2329C1.29392 23.1878 1.13799 23.0982 1.01297 22.9732C0.887946 22.8481 0.798308 22.6922 0.753186 22.5213C0.708065 22.3503 0.709074 22.1704 0.756111 22L1.75611 18.25C0.373482 15.9838 -0.218676 13.3232 0.0723399 10.6845C0.363356 8.04587 1.52112 5.57819 3.36438 3.66781C5.20764 1.75742 7.63234 0.512174 10.2589 0.127002C12.8855 -0.25817 15.5656 0.238479 17.8798 1.5392C20.1939 2.83992 22.0114 4.87128 23.0478 7.31528C24.0842 9.75928 24.2808 12.4779 23.6071 15.0457C22.9333 17.6134 21.4271 19.8852 19.3243 21.5055C17.2215 23.1258 14.6408 24.0031 11.9861 24ZM5.89611 20.16C6.09555 20.1596 6.29057 20.2188 6.45611 20.33C8.0927 21.4235 10.0178 22.0049 11.9861 22C13.9639 22 15.8973 21.4135 17.5418 20.3147C19.1863 19.2159 20.468 17.6541 21.2249 15.8268C21.9818 13.9996 22.1798 11.9889 21.794 10.0491C21.4081 8.1093 20.4557 6.32747 19.0572 4.92894C17.6587 3.53042 15.8768 2.57801 13.937 2.19216C11.9972 1.8063 9.98654 2.00434 8.15928 2.76121C6.33202 3.51809 4.77023 4.79982 3.67141 6.44431C2.5726 8.0888 1.98611 10.0222 1.98611 12C1.98125 13.9683 2.56262 15.8934 3.65611 17.53C3.73551 17.6474 3.78905 17.7803 3.81319 17.92C3.83732 18.0596 3.8315 18.2028 3.79611 18.34L3.12611 20.86L5.64611 20.19C5.72797 20.1702 5.81189 20.1601 5.89611 20.16Z" fill="black"/>
<path d="M11.9861 9C12.8145 9 13.4861 8.32843 13.4861 7.5C13.4861 6.67157 12.8145 6 11.9861 6C11.1577 6 10.4861 6.67157 10.4861 7.5C10.4861 8.32843 11.1577 9 11.9861 9Z" fill="black"/>
<path d="M13.9861 16H12.9861V10.49C12.9861 10.36 12.9345 10.2354 12.8426 10.1435C12.7507 10.0516 12.626 10 12.4961 10H9.98608C9.72087 10 9.46651 10.1054 9.27898 10.2929C9.09144 10.4804 8.98608 10.7348 8.98608 11C8.98608 11.2652 9.09144 11.5196 9.27898 11.7071C9.46651 11.8946 9.72087 12 9.98608 12H10.9861V16H9.98608C9.72087 16 9.46651 16.1054 9.27898 16.2929C9.09144 16.4804 8.98608 16.7348 8.98608 17C8.98608 17.2652 9.09144 17.5196 9.27898 17.7071C9.46651 17.8946 9.72087 18 9.98608 18H13.9861C14.2513 18 14.5057 17.8946 14.6932 17.7071C14.8807 17.5196 14.9861 17.2652 14.9861 17C14.9861 16.7348 14.8807 16.4804 14.6932 16.2929C14.5057 16.1054 14.2513 16 13.9861 16Z" fill="black"/>
</svg>

<svg width="24" height="24" viewBox="0 0 24 24" fill="none" xmlns="http://www.w3.org/2000/svg"><path d="M11.986 24a12 12 0 0 1-6.26-1.76l-3.74.99A1 1 0 0 1 .756 22l1-3.75A12 12 0 1 1 11.986 24Zm-6.09-3.84a1 1 0 0 1 .56.17 9.91 9.91 0 0 0 5.53 1.67 10 10 0 1 0-10-10 9.91 9.91 0 0 0 1.67 5.53 1 1 0 0 1 .14.81l-.67 2.52 2.52-.67c.082-.02.166-.03.25-.03Z" fill="currentColor"/><path d="M11.986 9a1.5 1.5 0 1 0 0-3 1.5 1.5 0 0 0 0 3Zm2 7h-1v-5.51a.49.49 0 0 0-.49-.49h-2.51a1 1 0 0 0 0 2h1v4h-1a1 1 0 0 0 0 2h4a1 1 0 0 0 0-2Z" fill="currentColor"/></svg>
